src/svg/36/smile_outline_36.svg

<svg fill="none" height="36" viewBox="0 0 36 36" width="36" xmlns="http://www.w3.org/2000/svg"><g fill="currentColor"><path d="m12.9382 21.1245c-.4712.4394-.497 1.1777-.0575 1.6489 2.6366 2.8274 7.066 2.9821 9.8934.3455.1184-.1104.2325-.2244.3424-.3418.4402-.4706.4155-1.2089-.055-1.649-.4706-.4402-1.2089-.4155-1.649.055-.0736.0787-.1502.1552-.2297.2293-1.8849 1.7577-4.8379 1.6546-6.5956-.2303-.4395-.4713-1.1777-.497-1.649-.0576z"/><path d="m21.9375 17.125c1.047 0 1.8958-.8488 1.8958-1.8958 0-1.0471-.8488-1.8959-1.8958-1.8959s-1.8958.8488-1.8958 1.8959c0 1.047.8488 1.8958 1.8958 1.8958z"/><path d="m15.9583 15.2292c0 1.047-.8488 1.8958-1.8958 1.8958s-1.8958-.8488-1.8958-1.8958c0-1.0471.8488-1.8959 1.8958-1.8959s1.8958.8488 1.8958 1.8959z"/><path clip-rule="evenodd" d="m18 3c8.2843 0 15 6.71573 15 15 0 8.2843-6.7157 15-15 15-8.28427 0-15-6.7157-15-15 0-8.28427 6.71573-15 15-15zm0 2.5c-6.9036 0-12.5 5.5964-12.5 12.5s5.5964 12.5 12.5 12.5 12.5-5.5964 12.5-12.5-5.5964-12.5-12.5-12.5z" fill-rule="evenodd"/></g></svg>

<svg width="36" height="36" viewBox="0 0 36 36" fill="none" xmlns="http://www.w3.org/2000/svg">
<path fill-rule="evenodd" clip-rule="evenodd" d="M18 3C26.2843 3 33 9.71573 33 18C33 26.2843 26.2843 33 18 33C9.71573 33 3 26.2843 3 18C3 9.71573 9.71573 3 18 3ZM18 5.5C11.0964 5.5 5.5 11.0964 5.5 18C5.5 24.9036 11.0964 30.5 18 30.5C24.9036 30.5 30.5 24.9036 30.5 18C30.5 11.0964 24.9036 5.5 18 5.5ZM12.9382 21.1245C12.467 21.5639 12.4412 22.3022 12.8807 22.7734C15.5173 25.6008 19.9467 25.7555 22.7741 23.1189C22.8925 23.0085 23.0066 22.8945 23.1165 22.7771C23.5567 22.3065 23.532 21.5682 23.0615 21.1281C22.5909 20.6879 21.8526 20.7126 21.4125 21.1831C21.3389 21.2618 21.2623 21.3383 21.1828 21.4124C19.2979 23.1701 16.3449 23.067 14.5872 21.1821C14.1477 20.7108 13.4095 20.6851 12.9382 21.1245ZM21.9375 17.125C22.9845 17.125 23.8333 16.2762 23.8333 15.2292C23.8333 14.1821 22.9845 13.3333 21.9375 13.3333C20.8905 13.3333 20.0417 14.1821 20.0417 15.2292C20.0417 16.2762 20.8905 17.125 21.9375 17.125ZM15.9583 15.2292C15.9583 16.2762 15.1095 17.125 14.0625 17.125C13.0155 17.125 12.1667 16.2762 12.1667 15.2292C12.1667 14.1821 13.0155 13.3333 14.0625 13.3333C15.1095 13.3333 15.9583 14.1821 15.9583 15.2292Z" fill="currentColor"/>
</svg>
